X: 8004
T: Connaughtman's Rambles, The
R: jig
M: 6/8
K: Dmajor
|:FAA dAA|BAA dAG|FAA dfe|dBB BAG|
FAA dAA|BAA def|gfe dfe|1 dBB BAG:|2 dBB B3||
|:fbb faa|fed ede|fbb faa|fed e3|
fbb faa|fed e2f|gfe dfe|1 dBB B3:|2 dBB BAG||

